icon-svg/shutter-30.svg

<?xml version="1.0" encoding="UTF-8"?>
<svg width="24px" fill="#44739e" height="24px" viewBox="0 0 24 24" version="1.1" xmlns="http://www.w3.org/2000/svg" xmlns:xlink="http://www.w3.org/1999/xlink">
            <path d="m 2.5,9.8129997 h 19 V 10.288 H 2.5 Z M 2.73,4.0040002 H 21.270001 V 9.4810004 H 2.73 Z M 2.5,2 v 1.692 h 19 V 2 Z M 6.222,3.347 H 3.067 V 2.271 H 6.222 Z M 3.2679999,2.4719999 h 2.753 v 0.675 h -2.753 z"/>

</svg>

<svg xmlns="http://www.w3.org/2000/svg" fill="#44739e" viewBox="0 0 24 24"><path d="M2.5 9.813h19v.475h-19Zm.23-5.809h18.54v5.477H2.73ZM2.5 2v1.692h19V2Zm3.722 1.347H3.067V2.271h3.155Zm-2.954-.875h2.753v.675H3.268z"/></svg>
